svgs/regular/binary-circle-check.svg

<svg xmlns="http://www.w3.org/2000/svg" viewBox="0 0 640 512"><!--! Font Awesome Pro 6.1.1 by @fontawesome - https://fontawesome.com License - https://fontawesome.com/license (Commercial License) Copyright 2022 Fonticons, Inc. --><path d="M328 176H360C373.3 176 384 186.7 384 200C384 213.3 373.3 224 360 224H248C234.7 224 224 213.3 224 200C224 186.7 234.7 176 248 176H280V57.3L263.6 62.77C251 66.96 237.4 60.16 233.2 47.59C229 35.01 235.8 21.42 248.4 17.23L296.4 1.232C303.7-1.208 311.8 .0196 318 4.53C324.3 9.041 328 16.29 328 24V176zM104 464H136C149.3 464 160 474.7 160 488C160 501.3 149.3 512 136 512H24C10.75 512 0 501.3 0 488C0 474.7 10.75 464 24 464H56V345.3L39.59 350.8C27.01 354.1 13.42 348.2 9.232 335.6C5.04 323 11.84 309.4 24.41 305.2L72.41 289.2C79.73 286.8 87.77 288 94.03 292.5C100.3 297 104 304.3 104 312V464zM0 72C0 32.24 32.24 .0001 72 .0001H120C159.8 .0001 192 32.24 192 72V152C192 191.8 159.8 224 120 224H72C32.24 224 0 191.8 0 152V72zM72 48C58.75 48 48 58.75 48 72V152C48 165.3 58.75 176 72 176H120C133.3 176 144 165.3 144 152V72C144 58.75 133.3 48 120 48H72zM312 288C317.1 288 323.7 288.7 329.3 290.1C322.5 304.5 317.6 319.1 314.7 336.2C313.8 336.1 312.9 336 312 336H264C250.7 336 240 346.7 240 360V440C240 453.3 250.7 464 264 464H312C320.7 464 328.3 459.4 332.5 452.5C340.1 467.2 349.7 480.8 360.9 492.9C348 504.7 330.9 512 312 512H264C224.2 512 192 479.8 192 440V360C192 320.2 224.2 288 264 288H312zM640 368C640 447.5 575.5 512 496 512C416.5 512 352 447.5 352 368C352 288.5 416.5 223.1 496 223.1C575.5 223.1 640 288.5 640 368zM540.7 324.7L480 385.4L451.3 356.7C445.1 350.4 434.9 350.4 428.7 356.7C422.4 362.9 422.4 373.1 428.7 379.3L468.7 419.3C474.9 425.6 485.1 425.6 491.3 419.3L563.3 347.3C569.6 341.1 569.6 330.9 563.3 324.7C557.1 318.4 546.9 318.4 540.7 324.7H540.7z"/></svg>

<svg xmlns="http://www.w3.org/2000/svg" viewBox="0 0 640 512"><!--! Font Awesome Pro 6.4.2 by @fontawesome - https://fontawesome.com License - https://fontawesome.com/license (Commercial License) Copyright 2023 Fonticons, Inc. --><path d="M318 4.5C324.3 9 328 16.3 328 24V176h32c13.3 0 24 10.7 24 24s-10.7 24-24 24H304 248c-13.3 0-24-10.7-24-24s10.7-24 24-24h32V57.3l-16.4 5.5C251 67 237.4 60.2 233.2 47.6S235.8 21.4 248.4 17.2l48-16C303.7-1.2 311.8 0 318 4.5zM94 292.5c6.3 4.5 10 11.8 10 19.5V464h32c13.3 0 24 10.7 24 24s-10.7 24-24 24H80 24c-13.3 0-24-10.7-24-24s10.7-24 24-24H56V345.3l-16.4 5.5C27 355 13.4 348.2 9.2 335.6S11.8 309.4 24.4 305.2l48-16c7.3-2.4 15.4-1.2 21.6 3.3zM72 0h48c39.8 0 72 32.2 72 72v80c0 39.8-32.2 72-72 72H72c-39.8 0-72-32.2-72-72V72C0 32.2 32.2 0 72 0zM48 72v80c0 13.3 10.7 24 24 24h48c13.3 0 24-10.7 24-24V72c0-13.3-10.7-24-24-24H72C58.7 48 48 58.7 48 72zM192 360c0-39.8 32.2-72 72-72h48c8.8 0 17.2 1.6 25 4.5c-6.8 14.4-11.8 29.8-14.5 45.9c-3.2-1.5-6.7-2.4-10.5-2.4H264c-13.3 0-24 10.7-24 24v80c0 13.3 10.7 24 24 24h48l.1 0h36.4c5.4 8.2 11.4 15.9 18 23.1C353.2 502.4 333.7 512 312 512H264c-39.8 0-72-32.2-72-72V360zm160 8a144 144 0 1 1 288 0 144 144 0 1 1 -288 0zm211.3-43.3c-6.2-6.2-16.4-6.2-22.6 0L480 385.4l-28.7-28.7c-6.2-6.2-16.4-6.2-22.6 0s-6.2 16.4 0 22.6l40 40c6.2 6.2 16.4 6.2 22.6 0l72-72c6.2-6.2 6.2-16.4 0-22.6z"/></svg>
